packages/foundations/assets/icons/functional/images/maps/compass_16.svg

<svg width="16" height="16" viewBox="0 0 16 16" fill="none" xmlns="http://www.w3.org/2000/svg">
<g clip-path="url(#clip0_186_11)">
<g clip-path="url(#clip1_186_11)">
<path fill-rule="evenodd" clip-rule="evenodd" d="M8.00002 0.685715C12.0326 0.685715 15.3143 3.96658 15.3143 8C15.3143 12.0334 12.0326 15.3143 8.00002 15.3143C3.96741 15.3143 0.68573 12.0326 0.68573 8C0.68573 3.96739 3.96741 0.685715 8.00002 0.685715ZM8.00002 2.31111C4.863 2.31111 2.31113 4.8638 2.31113 8C2.31113 11.1362 4.863 13.6889 8.00002 13.6889C11.137 13.6889 13.6889 11.1362 13.6889 8C13.6889 4.8638 11.137 2.31111 8.00002 2.31111ZM9.13535 4.52734C9.39623 4.31766 9.75951 4.29003 10.0496 4.45745C10.3381 4.62568 10.4958 4.95401 10.4454 5.28478L9.91392 8.75418C9.88304 8.95492 9.77901 9.13697 9.62135 9.26375L6.86468 11.4897C6.6038 11.7002 6.2389 11.7295 5.94795 11.5612C5.65701 11.3938 5.49934 11.0631 5.55136 10.7315L6.10155 7.23119C6.13325 7.03126 6.23809 6.85003 6.39656 6.72325L9.13535 4.52734ZM8.52339 7.10034L7.65787 7.79358L7.48477 8.89966L8.35598 8.19667L8.52339 7.10034Z" fill="#1A1C1F"/>
</g>
</g>
<defs>
<clipPath id="clip0_186_11">
<rect width="16" height="16" fill="white"/>
</clipPath>
<clipPath id="clip1_186_11">
<rect width="16" height="16" fill="white"/>
</clipPath>
</defs>
</svg>

<svg xmlns="http://www.w3.org/2000/svg" width="16" height="16" fill="none"><g clip-path="url(#a)"><g clip-path="url(#b)"><path fill="#1A1C1F" fill-rule="evenodd" d="M8 .686c4.033 0 7.314 3.28 7.314 7.314 0 4.033-3.281 7.314-7.314 7.314S.686 12.033.686 8 3.967.686 8 .686M8 2.31A5.696 5.696 0 0 0 2.311 8 5.696 5.696 0 0 0 8 13.689 5.696 5.696 0 0 0 13.689 8 5.696 5.696 0 0 0 8 2.311m1.135 2.216a.812.812 0 0 1 1.31.758l-.531 3.47a.8.8 0 0 1-.293.509L6.865 11.49a.813.813 0 0 1-1.314-.758l.55-3.5a.8.8 0 0 1 .296-.509zM8.523 7.1l-.865.694L7.485 8.9l.871-.703z" clip-rule="evenodd"/></g></g><defs><clipPath id="a"><path fill="#fff" d="M0 0h16v16H0z"/></clipPath><clipPath id="b"><path fill="#fff" d="M0 0h16v16H0z"/></clipPath></defs></svg>
